X:1
T:Warden, 77.77.77
T:Warden, 77.77.77
T:James Turle, 1844
T:Public Domain Courtesy of the Cyber Hymnal™
C:James Turle, 1844
Z:Public Domain
Z:Courtesy of the Cyber Hymnal™
%%score ( 1 2 ) ( 3 4 )
L:1/8
Q:1/4=113
M:4/4
K:F
V:1 treble 
V:2 treble 
V:3 bass 
V:4 bass 
V:1
 [CA]2 d2 [Fc]2 [FA]2 | F2 [EB]2 [FA]4 | [A,F]2 [CG]2 [CA]2 [Cc]2 | F2 [GB]2 [EG]4 | %4
 (AG) [DF]2 [GB]2 [EG]2 | A2 =B2 [Ec]4 | [DG]2 d2 e2 [Gc]2 | A2 (GF) F2 E2 | %8
 F2 z ([CE] [DF]) [EG]2 x | A2 z [Dd]4 x | c3 z B [FA]2 [A,F]2 | [DF]2 [CE]2 [CF]4 |] %12
V:2
 x2 (DE) x4 | F2 x6 | x8 | F2 x6 | F2 x6 | A2 (GF) x4 | x2 (GF) (EF) x2 | (FE) D2 C4 | %8
 C3 F2 =B, x2 | F3 c2 _E x2 | E2 G2 x5 | x8 |] %12
V:3
 F,2 (F,G,) (A,B,) [F,C]2 | ([B,D][A,C]) [G,B,]2 [F,C]4 | [D,F,]2 [C,E,]2 F,2 [A,,A,]2 | %3
 [D,A,]2 [B,,D]2 [C,C]4 | [F,C]2 [B,D]2 [G,D]2 [C,C]2 | [F,C]2 (ED) [A,C]4 | %6
 ([=B,D][A,C]) [G,B,]2 (CD) [E,E]2 | [F,C]2 [G,=B,]2 [C,C]4 | [F,A,]2 [D,F,]2 [C,G,]2 [B,C]2 | %9
 [A,C]2 [F,A,]2 (B,3 A,) | [C,G,]2 [E,C]2 [F,C]2 [D,F,]2 x | [B,,G,]2 [C,G,]2 [F,A,]4 |] %12
V:4
 F,2 B,,2 A,,2 x2 | x8 | x4 F,2 x2 | x8 | x8 | x2 G,2 x4 | x4 C2 x2 | x8 | x8 | x4 B,,4 | x9 | %11
 x8 |] %12

